X: 68
T: Sir Harry's Welcome Home
T: Strathspey, G
C: Peter Hardy
L: 1/16
M: C|
K: G
|: dd3 d3B A3G E3e| dd3 d3B G3e g3e| dd3 d3B A3G E3A|[1 GD3 EF3 G4 G3e :| [2 GD3 EF3 G4 G3d |] 
|: g3d gb3 a3g ef3| g3d gb3 g3d gb3| g3d gb3 a3g e3g|[1 a3b ag3 e4 e3f :| [2 a3b ag3 e4 e3g |]
D: Glenn Graham/Rodney MacDonald, Traditionally Rockin', TR1
D: Natalie MacMaster, My Roots Are Showing
